X: 1927
T: Arrane Ben Drogh Hraghtalagh
R: reel
M: 4/4
K: Dmajor
DEFG A2A2|G2G2 F2D2|DEFG A2A2|d2 d2 A2 F2|
DEFG A2A2|G2G2 F2D2|DEFG A2D2|E4 D4|
d4 F4|E4 F4|DEFG A2 D2|E4 D4||

